public/logos/weddingsInZIhua.svg

<?xml version="1.0" encoding="UTF-8" standalone="no"?><!DOCTYPE svg PUBLIC "-//W3C//DTD SVG 1.1//EN" "http://www.w3.org/Graphics/SVG/1.1/DTD/svg11.dtd"><svg width="100%" height="100%" viewBox="0 0 665 417" version="1.1" xmlns="http://www.w3.org/2000/svg" xmlns:xlink="http://www.w3.org/1999/xlink" xml:space="preserve" xmlns:serif="http://www.serif.com/" style="fill-rule:evenodd;clip-rule:evenodd;stroke-linejoin:round;stroke-miterlimit:2;"><g><g><path d="M165.169,417l-44.546,0c0,0 -50.537,-248.105 -65.64,-322.246c-2.452,-12.033 -13.035,-20.679 -25.319,-20.679l-4.836,0c-2.699,0 -5.027,-1.902 -5.566,-4.547c-0.224,-1.1 0.057,-2.243 0.769,-3.113c0.709,-0.869 1.772,-1.374 2.897,-1.374l70.548,0l71.693,351.96Z" style="fill:#656a8d;"/><path d="M261.578,229.58l44.546,0l38.178,187.42l-44.546,0l-38.178,-187.42Z" style="fill:#656a8d;"/><path d="M645.738,69.587c0.222,1.1 -0.059,2.243 -0.769,3.112c-0.711,0.871 -1.774,1.376 -2.899,1.376l-8.19,0c-8.659,0 -16.741,4.338 -21.529,11.554c-39.667,59.798 -219.817,331.372 -219.817,331.372l-89.929,0l233.473,-351.96l104.092,-0c2.7,0 5.029,1.9 5.568,4.547Z" style="fill:#656a8d;"/><path d="M324.671,417l-204.048,0l227.169,-342.453l-102.26,0.002c-0.041,-0.004 -0.083,-0.006 -0.126,-0.009l-48.046,0l-0.241,-0.002c-20.461,-0.128 -37.289,-16.779 -37.606,-37.267c-0.319,-20.57 16.123,-37.271 36.693,-37.271c19.86,0 36.354,15.567 37.754,35.155c0.044,0.593 0.074,1.211 0.087,1.861l0.002,0.022c0.002,0.076 0.004,0.154 0.004,0.232c0.226,14.574 3.725,26.002 12.945,27.769l114.762,0l0.022,0.002l89.96,0l-227.169,342.451l98.343,0c9.163,-1.767 12.307,-13.195 12.082,-27.769c-0.002,-0.078 -0.002,-0.156 -0.002,-0.232l0,-0.024c-0.006,-0.648 0.004,-1.269 0.028,-1.86c0.795,-19.588 16.808,-35.155 36.667,-35.155c20.57,0 37.528,16.701 37.847,37.271c0.319,20.488 -15.993,37.137 -36.452,37.267l-0.239,0.002l-48.046,0c-0.043,0.002 -0.083,0.006 -0.128,0.007Z" style="fill:#40435a;"/></g></g></svg>

<?xml version="1.0" encoding="UTF-8" standalone="no"?>
<!DOCTYPE svg PUBLIC "-//W3C//DTD SVG 1.1//EN" "http://www.w3.org/Graphics/SVG/1.1/DTD/svg11.dtd">
<svg width="100%" height="100%" viewBox="0 0 665 417" version="1.1" xmlns="http://www.w3.org/2000/svg" xmlns:xlink="http://www.w3.org/1999/xlink" xml:space="preserve" xmlns:serif="http://www.serif.com/" style="fill-rule:evenodd;clip-rule:evenodd;stroke-linejoin:round;stroke-miterlimit:2;">
    <g>
        <g transform="matrix(0.845278,0,0,0.845278,51.444912,32.259569)">
            <path d="M165.169,417L120.623,417C120.623,417 70.086,168.895 54.983,94.754C52.531,82.721 41.948,74.075 29.664,74.075L24.828,74.075C22.129,74.075 19.801,72.173 19.262,69.528C19.038,68.428 19.319,67.285 20.031,66.415C20.74,65.546 21.803,65.041 22.928,65.041L93.476,65.041L165.169,417.001L165.169,417Z" style="fill:white;"/>
            <path d="M261.578,229.58L306.124,229.58L344.302,417L299.756,417L261.578,229.58Z" style="fill:white;"/>
            <path d="M645.738,69.587C645.96,70.687 645.679,71.83 644.969,72.699C644.258,73.57 643.195,74.075 642.07,74.075L633.88,74.075C625.221,74.075 617.139,78.413 612.351,85.629C572.684,145.427 392.534,417.001 392.534,417.001L302.605,417.001L536.078,65.041L640.17,65.041C642.87,65.041 645.199,66.941 645.738,69.588L645.738,69.587Z" style="fill:white;"/>
            <path d="M324.671,417L120.623,417L347.792,74.547L245.532,74.549C245.491,74.545 245.449,74.543 245.406,74.54L197.36,74.54L197.119,74.538C176.658,74.41 159.83,57.759 159.513,37.271C159.194,16.701 175.636,0 196.206,0C216.066,0 232.56,15.567 233.96,35.155C234.004,35.748 234.034,36.366 234.047,37.016L234.049,37.038C234.051,37.114 234.053,37.192 234.053,37.27C234.279,51.844 237.778,63.272 246.998,65.039L361.76,65.039L361.782,65.041L451.742,65.041L224.573,407.492L322.916,407.492C332.079,405.725 335.223,394.297 334.998,379.723C334.996,379.645 334.996,379.567 334.996,379.491L334.996,379.467C334.99,378.819 335,378.198 335.024,377.607C335.819,358.019 351.832,342.452 371.691,342.452C392.261,342.452 409.219,359.153 409.538,379.723C409.857,400.211 393.545,416.86 373.086,416.99L372.847,416.992L324.801,416.992C324.758,416.994 324.718,416.998 324.673,416.999L324.671,417Z" style="fill:rgb(246,230,230);"/>
        </g>
    </g>
</svg>
